X:30
%%score 1 2
%%vocalfont Baskerville10Pro 8.4
%%pagewidth 6.6in
T:To-morrow the fox will come to town, or Trenchmore
M:6/8
L:1/8
K:G
V:1 clef-treble
V:2 clef-bass octave=-1
V:1
[B,G]|[A,F]F[B,G] [CA]2[DB]|[CA]2[B,G] [CA]FD|G3 [GB]3 & B,2x x3|([Bd]2[Ac]) [GB]2[B,G]|[A,F]F[B,G] [CA]2[DB]|
w:To-morrow* the fox will come to town,** Keep, keep, keep,* keep; To-morrow* the fox will
V:2
G|D3 D3| D3 D3| G,3 G,3|G,3 G,3|D3 C2B,|
V:1
[Ec]2[DB] [CA]2[DB]/[Ec]/|[DBd]2[GB] [CFA]2A|[B,G]3-[B,G]2[B,G]|[A,F]2[B,G] [CA]2[DB]|[CA]2[B,G] [CA]2D|
w:come to town, O* keep you all well there.* I must de-sire you neigh-bours all, To
V:2
A,3 A3|D3 D3| G3 G,2G,|D3 D3| D3 D3|
V:1
[B,G]GG [GB]2B|[Bd]2[Ac] [GB]2[B,G]|[A,F]2[B,G] [CA]2[DB]|[Ec]2[DB] [CA]3|!f![DGB]3[DFAd]3|
w:hal-lo the fox out of the hall, And cry as loud as you can call, Whoop, whoop,
V:2
G,3 G,3| G,3 G,3| D3 C2B,|A,3 A3|D3 D3|
V:1
[Bd]2B d2[B,G] & [DG]3-[DG]2x|[A,DF]2[B,G] [CA]2[DB]|[Ec]2[DB] [CA]2[DB]/[Ec]/|[DBd]2[GB] [CFA]2A|[B,G]3-[B,G]2||
w: whoop, whoop, whoop. And cry as loud as you can call, O* keep you all well there.*
V:2
G3-G2G,|D3 C2B,| A,3 A3|D3 D3|G3 G,2||

